htdocs/bitrix/js/ui/icons/service/images/ui-service-call-up.svg

<svg width="42" height="42" viewBox="-12 -11 42 42" fill="none" xmlns="http://www.w3.org/2000/svg">
<path d="M18.5863 15.0612L15.6501 12.1135C15.0652 11.5288 14.0967 11.5466 13.4915 12.1543L12.0123 13.6389C11.9188 13.5872 11.8221 13.5332 11.7204 13.4759C10.7862 12.9563 9.50772 12.2442 8.16233 10.8927C6.81296 9.53831 6.10288 8.25293 5.58371 7.31462C5.52892 7.21521 5.47643 7.11937 5.42459 7.02835L6.41739 6.03324L6.90549 5.54268C7.51163 4.93407 7.52834 3.96215 6.94487 3.37574L4.00869 0.427697C3.42523 -0.157888 2.4563 -0.140123 1.85016 0.46849L1.02264 1.30393L1.04526 1.32647C0.767779 1.68188 0.535911 2.09179 0.363361 2.53383C0.204304 2.95459 0.105275 3.35611 0.0599934 3.75846C-0.32771 6.98487 1.14106 9.93358 5.12712 13.9349C10.6371 19.4655 15.0774 19.0477 15.2689 19.0273C15.6861 18.9772 16.086 18.8772 16.4923 18.7188C16.9288 18.5476 17.3369 18.3152 17.6907 18.0372L17.7088 18.0534L18.5471 17.2293C19.152 16.6208 19.1694 15.6486 18.5863 15.0612Z" fill="white"/>
</svg>

<svg width="42" height="42" viewBox="-12 -11 42 42" fill="none" xmlns="http://www.w3.org/2000/svg"><path d="M18.586 15.061l-2.936-2.947c-.585-.585-1.553-.567-2.159.04l-1.479 1.485-.292-.163c-.934-.52-2.212-1.232-3.558-2.583-1.349-1.355-2.06-2.64-2.578-3.578-.055-.1-.108-.196-.16-.287l.993-.995.488-.49c.607-.609.623-1.58.04-2.167L4.009.428C3.425-.158 2.456-.14 1.85.468l-.827.836.022.022c-.277.356-.51.766-.682 1.208-.159.42-.258.822-.303 1.224-.388 3.227 1.081 6.176 5.067 10.177 5.51 5.53 9.95 5.113 10.142 5.092.417-.05.817-.15 1.223-.308a4.763 4.763 0 0 0 1.199-.682l.018.016.838-.824c.605-.608.622-1.58.04-2.168z" fill="#fff"/></svg>
